Origami/32x32/apps/goodvibes.svg

<svg width="32" height="32" version="1" xmlns="http://www.w3.org/2000/svg">
 <rect transform="scale(-1,1)" x="-30" y="6" width="28" height="22" rx="1.4" ry="1.375" style="opacity:.2"/>
 <rect transform="scale(-1,1)" x="-30" y="5" width="28" height="22" rx="1.4" ry="1.375" style="fill:#ffc543"/>
 <circle cx="8" cy="20" r="4" style="opacity:.2"/>
 <circle cx="8" cy="19" r="4" style="fill:#ff5100"/>
 <rect x="4" y="7" width="24" height="5" style="fill:#4d4d4d"/>
 <rect transform="rotate(90)" x="8" y="-13" width="4" height="3" style="fill:#ff5100"/>
 <path d="m18.5 14a1.5 1.5 0 0 0 -1.5 1.5 1.5 1.5 0 0 0 1.5 1.5 1.5 1.5 0 0 0 1.5 -1.5 1.5 1.5 0 0 0 -1.5 -1.5zm4 0a1.5 1.5 0 0 0 -1.5 1.5 1.5 1.5 0 0 0 1.5 1.5 1.5 1.5 0 0 0 1.5 -1.5 1.5 1.5 0 0 0 -1.5 -1.5zm4 0a1.5 1.5 0 0 0 -1.5 1.5 1.5 1.5 0 0 0 1.5 1.5 1.5 1.5 0 0 0 1.5 -1.5 1.5 1.5 0 0 0 -1.5 -1.5zm-8 4a1.5 1.5 0 0 0 -1.5 1.5 1.5 1.5 0 0 0 1.5 1.5 1.5 1.5 0 0 0 1.5 -1.5 1.5 1.5 0 0 0 -1.5 -1.5zm4 0a1.5 1.5 0 0 0 -1.5 1.5 1.5 1.5 0 0 0 1.5 1.5 1.5 1.5 0 0 0 1.5 -1.5 1.5 1.5 0 0 0 -1.5 -1.5zm4 0a1.5 1.5 0 0 0 -1.5 1.5 1.5 1.5 0 0 0 1.5 1.5 1.5 1.5 0 0 0 1.5 -1.5 1.5 1.5 0 0 0 -1.5 -1.5zm-8 4a1.5 1.5 0 0 0 -1.5 1.5 1.5 1.5 0 0 0 1.5 1.5 1.5 1.5 0 0 0 1.5 -1.5 1.5 1.5 0 0 0 -1.5 -1.5zm4 0a1.5 1.5 0 0 0 -1.5 1.5 1.5 1.5 0 0 0 1.5 1.5 1.5 1.5 0 0 0 1.5 -1.5 1.5 1.5 0 0 0 -1.5 -1.5zm4 0a1.5 1.5 0 0 0 -1.5 1.5 1.5 1.5 0 0 0 1.5 1.5 1.5 1.5 0 0 0 1.5 -1.5 1.5 1.5 0 0 0 -1.5 -1.5z" style="fill:#4d4d4d"/>
 <path d="M 3.4003906 5 C 2.6247906 5 2 5.61325 2 6.375 L 2 7.375 C 2 6.61325 2.6247906 6 3.4003906 6 L 28.599609 6 C 29.375209 6 30 6.61325 30 7.375 L 30 6.375 C 30 5.61325 29.375209 5 28.599609 5 L 3.4003906 5 z" style="fill:#ffffff;opacity:.2"/>
</svg>

<svg xmlns="http://www.w3.org/2000/svg" width="32" height="32" version="1">
 <rect style="opacity:0.2" width="28" height="22" x="-30" y="6" rx="1.4" ry="1.375" transform="scale(-1,1)"/>
 <rect style="fill:#ffc543" width="28" height="22" x="-30" y="5" rx="1.4" ry="1.375" transform="scale(-1,1)"/>
 <circle style="opacity:0.2" cx="8" cy="20" r="4"/>
 <circle style="fill:#ff5100" cx="8" cy="19" r="4"/>
 <rect style="fill:#4d4d4d" width="24" height="5" x="4" y="7"/>
 <rect style="fill:#ff5100" width="4" height="3" x="8" y="-13" transform="matrix(0,1,-1,0,0,0)"/>
 <path style="fill:#4d4d4d" d="M 18.5 14 A 1.5 1.5 0 0 0 17 15.5 A 1.5 1.5 0 0 0 18.5 17 A 1.5 1.5 0 0 0 20 15.5 A 1.5 1.5 0 0 0 18.5 14 z M 22.5 14 A 1.5 1.5 0 0 0 21 15.5 A 1.5 1.5 0 0 0 22.5 17 A 1.5 1.5 0 0 0 24 15.5 A 1.5 1.5 0 0 0 22.5 14 z M 26.5 14 A 1.5 1.5 0 0 0 25 15.5 A 1.5 1.5 0 0 0 26.5 17 A 1.5 1.5 0 0 0 28 15.5 A 1.5 1.5 0 0 0 26.5 14 z M 18.5 18 A 1.5 1.5 0 0 0 17 19.5 A 1.5 1.5 0 0 0 18.5 21 A 1.5 1.5 0 0 0 20 19.5 A 1.5 1.5 0 0 0 18.5 18 z M 22.5 18 A 1.5 1.5 0 0 0 21 19.5 A 1.5 1.5 0 0 0 22.5 21 A 1.5 1.5 0 0 0 24 19.5 A 1.5 1.5 0 0 0 22.5 18 z M 26.5 18 A 1.5 1.5 0 0 0 25 19.5 A 1.5 1.5 0 0 0 26.5 21 A 1.5 1.5 0 0 0 28 19.5 A 1.5 1.5 0 0 0 26.5 18 z M 18.5 22 A 1.5 1.5 0 0 0 17 23.5 A 1.5 1.5 0 0 0 18.5 25 A 1.5 1.5 0 0 0 20 23.5 A 1.5 1.5 0 0 0 18.5 22 z M 22.5 22 A 1.5 1.5 0 0 0 21 23.5 A 1.5 1.5 0 0 0 22.5 25 A 1.5 1.5 0 0 0 24 23.5 A 1.5 1.5 0 0 0 22.5 22 z M 26.5 22 A 1.5 1.5 0 0 0 25 23.5 A 1.5 1.5 0 0 0 26.5 25 A 1.5 1.5 0 0 0 28 23.5 A 1.5 1.5 0 0 0 26.5 22 z"/>
 <path style="fill:#ffffff;opacity:0.2" d="M 3.4003906 5 C 2.6247906 5 2 5.61325 2 6.375 L 2 7.375 C 2 6.61325 2.6247906 6 3.4003906 6 L 28.599609 6 C 29.375209 6 30 6.61325 30 7.375 L 30 6.375 C 30 5.61325 29.375209 5 28.599609 5 L 3.4003906 5 z"/>
</svg>
